X: 37630
T: Snow Deer
R: reel
M: 4/4
K: Gmajor
D2G2A2|"G"B2B^A B2Bc|B2G2 F2G2|"A"A2A^G A2AB|A2G2 F2E2|"D7"D4 A4-|A2G2 F2E2|"G"D4 B4|
B2D2 G2A2|"G"B2B^A B2Bc|B2G2 F2G2|"A"A2A^G A2AB|A2G2 F2E2|"D7"D4 A4-|A2G2 A2B2|"G"G8-|G2G2 "G7"A2B2|
"C"c4 E4-|E2G2 F2E2|"G"D4 B4-|B4 B3c|"D"B2A2 A2^GA-|A4 A3B|"G"A2G2 G2FG-|G2G2 "G7"A2B2|
"C"c4 E4-|E2G2 F2E2|"G"D4 B4-|B4 B3c|"D7"B2A2 A2^GA-|A2c2 B2A2|"G"G8|1 G2:|2 "G"G8||

